X:1
T:III
T:III
L:1/8
Q:1/4=80
M:4/4
K:G
V:1 treble nm="Violin" snm="Vln."
V:1
 [Ee]4 [Ff]2 [Gg]2 | T[B,B]6 z2 | [Gg]4 [Aa]2 [Bb]2 | T[Dd]6 z2 | %4
 [cc']2 [Bb]/!>![Aa]/[Gg]/!>![Ff]/ [Ee]/!>![^D^d]/[Cc]/!>![B,B]/ [A,A][cc'] | %5
 [Bb]2 [Aa]/!>![Gg]/[Ff]/!>![Ee]/ [Dd]/!>![Cc]/[B,B]/!>![A,A]/ [G,G][Bb] | %6
 [Aa]2 [Gg]/!>![Ff]/[Ee]/!>![^D^d]/ [Gg]2 [Ff]/!>![Ee]/[Cc]/!>![^A,^A]/ | T[B,B]6 z2 | %8
 [ee']4 [ff']2 [gg']2 | T[Bb]6 z2 | [gg']4 [aa']2 [bb']2 | T[dd']6 z2 | [^d^d']4 [c'c'']4 | %13
 [bb']2 [ee']3 [ff']/[ee']/ (5:4:5[ff']/[gg']/[aa']/[bb']/[c'c'']/ | %14
 [c'c'']/ [ee']3 z/ [gg']/ T[ff']3 z/ | [ee']4 z2 [^G,^G]2 | %16
 [A,A]/[B,B]/[Cc]/[Dd]/ [Ee]/[Ff]/[^G^g]/[Aa]/ T[Bb]4 | %17
 [cc']2 [A,A]2 (3[A,A][cc'][Bb] (3[cc'][Aa][=F=f] | [Ee]4 [Gg]/ T[Ff]3 z/ | T[Ee]4 T[cc']4 | %20
 T[Aa]4 T[Bb]4 | Te4 T[Cc]4 | T[A,A]4 T[B,B]4 | !fermata!TE4 z4 |: %24
[K:E][M:3/8][Q:1/8=270] E/G/B/e/g/e/ | ^A/B/^a/b/^^f/=a/ | g/d/f/e/^B/d/ | c/G/B/A/^E/F/ | %28
 D/F/=C/B,/D/F/ | A/=c/B/d/f/g/ | b/a/^e/f/d/=c/ | ^A/c/B/G/D/E/ | g/f/d/c/^B/a/ | %33
 ^^f/g/d/e/^B/c/ | f/e/c/B/^A/g/ | ^e/f/^^c/d/^A/B/ | g/e/b/g/f/D/ | e/c/g/e/d/B,/ | %38
 E/B/G/F/^E/c/ | ^A/G/F/d/B/A/ | G/e/c/B/^A/f/ | d/c/B/b/^a/=a/ | f/=g/b/g/=d/B/ | =G/B/F/B/^E/b/ | %44
 f/d/F/D/E/C/ | B,/b/^a/b/=a/^a/ | ^^f/g/^e/^f/d/=e/ | ^^c/d/^B/^c/^A/=B/ | ^^F/G/^F/D/E/C/ | %49
 B,B z :| B,/D/F/B/d/B/ | f/d/b/f/d/B/ | B,/=D/F/B/=d/B/ | f/=d/b/f/d/B/ | =c/=c'/B/c'/A/c'/ | %55
 =G/=c'/F/c'/E/c'/ | =D/E/D/B,/=C/A,/ | =G,/=d'/c'/d'/b/=g/ | e/=c'/b/c'/a/f/ | d/b/^a/b/=g/e/ | %60
 =c/a/g/a/=f/=d/ | B/=g/f/g/=f/=d/ | =c/e/B/e/A/e/ | A/=c/=G/c/=F/c/ | E/=c/=D/c/=C/c/ | %65
 A/=f/e/f/=c/A/ | F/d/=d/^d/=c/A/ | =G/=g/f/g/=d/B/ | G/f/e/f/=d/B/ | A/e/c/A/=f/=d/ | %70
 A/=g/e/A/a/=f/ | =G/=d/B/G/e/=c/ | =G/=f/=d/G/=g/^d/ | =F/=c/A/F/=d/_B/ | =F/d/=c/A/D/=C/ | %75
 _B,/=D/=F/_B/=d/B/ | E/=F/e/=f/c/d/ | =d/A/=c/_B/F/A/ | =G/=D/=F/^D/=C/_B,/ | A,/=C/D/F/=F/A/ | %80
 =c/d/f/=f/a/=c'/ | d'/=c'/a/=f/^f/d/ | c/d/=d/A/=c/_B/ | F/A/=G/B/=d/=c/ | G/_B/A/c/d/=d/ | %85
 A/=c/_B/g/=f/=d/ | _b/=g/d/_B/=G/D/ | _b/f/d/_B/F/D/ | b/f/d/B/F/D/ | B,/B/^A/B/=A/F/ | %90
 E/G/B/e/g/e/ | ^A/B/^a/b/^^f/=a/ | g/d/f/e/^B/d/ | c/^A/=G/E/C/B,/ | ^A,/C/E/=G/^A/c/ | %95
 e/=g/^a/c'/a/e'/ | c'/g'/e'/c'/^a/c'/ | b/e'/d'/e'/^^c'/d'/ | ^b/c'/^a/=b/g/=a/ | %99
 ^^f/g/^e/^f/d/=e/ | ^A/c/B/G/=A/F/ | z3 |[K:G][M:4/4][Q:1/4=80] [Ee]4 [Ff]2 [Gg]2 | T[B,B]6 z2 | %104
 [Ff]4 [Aa]2 [Gg]2 | T[Ee]6 z2 | [ee']4 [ff']2 [gg']2 | %107
 [aa']2 [Aa]2 (6:4:6[c'c''][bb'][d'd''][c'c''][aa'][=f=f'] | [ee']4 T[Bb]4 | Te6 z2 | %110
 T[Bb]4 T[B,B]4 | TE8 |] %112

